X: 27772
T: Morpeth Lasses, The
R: reel
M: 4/4
K: Adorian
|:AE E/E/E c2ce|dcBA GABG|AE E/E/E c2ce|dBgB A/A/A A2:|
|:agea gfeg|fedg dBGB|1 agea gfeg|gfgB A/A/A A2:|
2 cBdB ecfd|geac A/A/A A2||

